public/surfboard.svg

<svg viewBox="0 0 24 24" xmlns="http://www.w3.org/2000/svg"><path d="M3 12v10h8v-9h1.45v1.46l.62 7.54h7.85l.58-7.54a17.17 17.17 0 0 0-3.72-12.08L17 1.4l-.78 1a17.21 17.21 0 0 0-3 5.62h-3.4A3 3 0 0 0 10 7a3 3 0 0 0-6 0 3 3 0 0 0 .62 1.8A4 4 0 0 0 3 12Zm14-7.31a15.17 15.17 0 0 1 2.51 9.62L19.07 20H18V10h-2v10h-1.07l-.44-5.69A15.17 15.17 0 0 1 17 4.69ZM12.58 11H9v9H8v-4H6v4H5v-8a2 2 0 0 1 2-2h5.74c-.06.33-.12.66-.16 1ZM6 7a1 1 0 1 1 1 1 1 1 0 0 1-1-1Z" data-name="Layer 2" fill="#ffffff" class="fill-000000"></path></svg>

<?xml version="1.0" ?><svg viewBox="0 0 24 24" xmlns="http://www.w3.org/2000/svg"><title/><g data-name="Layer 2" id="Layer_2"><path d="M3,12V22h8V13h1.45c0,.49,0,1,0,1.46L13.07,22h7.85l.58-7.54A17.17,17.17,0,0,0,17.78,2.38L17,1.4l-.78,1a17.21,17.21,0,0,0-3,5.62H9.82A3,3,0,0,0,10,7,3,3,0,0,0,4,7a3,3,0,0,0,.62,1.8A4,4,0,0,0,3,12ZM17,4.69a15.17,15.17,0,0,1,2.51,9.62L19.07,20H18V10H16V20H14.93l-.44-5.69A15.17,15.17,0,0,1,17,4.69ZM12.58,11H9v9H8V16H6v4H5V12a2,2,0,0,1,2-2h5.74C12.68,10.33,12.62,10.66,12.58,11ZM6,7A1,1,0,1,1,7,8,1,1,0,0,1,6,7Z"/></g></svg>
